img/blog.svg

<svg xmlns="http://www.w3.org/2000/svg" width="512" height="512" version="1.1"><rect fill="none" id="canvas_background" height="402" width="582" y="-1" x="-1" /><path d="M 56.677734 -7.3222656 C 21.221734 -7.3222656 -7.3222656 21.221734 -7.3222656 56.677734 L -7.3222656 455.32227 C -7.3222656 490.77827 21.221734 519.32227 56.677734 519.32227 L 455.32227 519.32227 C 490.77827 519.32227 519.32227 490.77827 519.32227 455.32227 L 519.32227 56.677734 C 519.32227 21.221734 490.77827 -7.3222656 455.32227 -7.3222656 L 56.677734 -7.3222656 z M 128.29102 56.748047 L 204.19336 56.748047 L 204.19336 322.41406 C 204.19336 353.81489 229.7288 379.35156 261.125 379.35156 C 292.51658 379.35156 318.05469 353.81642 318.05469 322.41406 C 318.05469 291.01631 292.51813 265.50391 261.125 265.50391 L 223.16406 265.50391 L 223.16406 189.5957 L 261.125 189.5957 C 334.35611 189.5957 393.96094 249.18913 393.96094 322.41406 C 393.96094 395.65281 334.3561 455.25195 261.125 455.25195 C 187.89083 455.25195 128.29102 395.65435 128.29102 322.41406 L 128.29102 56.748047 z"/></svg>

<svg width="512" height="512" xmlns="http://www.w3.org/2000/svg"><rect fill="none" id="canvas_background" height="402" width="582" y="-1" x="-1"/><rect fill="#000000" fill-rule="nonzero" y="-7.32266" x="-7.322608" width="526.645233" ry="64" rx="64" id="rect2987" height="526.645268"/><path fill="#ffffff" id="Yahoo_x21__Buzz_3_" d="m261.125811,455.25215c-73.23417,0 -132.83577,-59.5986 -132.83577,-132.83889l0,-265.66541l75.90395,0l0,265.66541c0,31.40083 25.53562,56.93799 56.93182,56.93799c31.39158,0 56.92874,-25.53563 56.92874,-56.93799c0,-31.39775 -25.53561,-56.9087 -56.92874,-56.9087l-37.96123,0l0,-75.90859l37.96123,0c73.23111,0 132.83583,59.5939 132.83583,132.81883c0,73.23875 -59.60473,132.83735 -132.83583,132.83735z"/></svg>
